X:1
T:Big Scioty
L:1/8
M:4/4
I:linebreak $
K:G
V:1 treble
V:1
 (3D2 E2 F2 |:"G" G2 GB AGAc | B G3 G2 (3DEF | G2 GB AGAc | BAGB A2 D2 |$
 G2 GA Bc d2 |"C" e3 e e4 |"G"   BAGB "D" AGED |1"G"  E G3 G2 (3DEF :|2"G"  E G3 G2 ef |:$
 "G" g2 g2 ba g2 |"D"  a3 b a2 a2 | abag edBd |"Em" e3 f e2 ef |$
  g2 g2 ed B2 |"C" e3 f e4 |"D"  BAGB AGED |"G"  EG G4 ef :|
